modules/feathericon/icons/squid.svg

<?xml version="1.0" encoding="UTF-8"?>
<svg width="24px" height="24px" viewBox="0 0 24 24" version="1.1" xmlns="http://www.w3.org/2000/svg" xmlns:xlink="http://www.w3.org/1999/xlink">
    <!-- Generator: sketchtool 52.2 (67145) - http://www.bohemiancoding.com/sketch -->
    <title>squid</title>
    <desc>Created with sketchtool.</desc>
    <g id="nature" stroke="none" stroke-width="1" fill="none" fill-rule="evenodd">
        <g id="squid" fill="#000000">
            <path d="M8,10 L6,8 L12,2 L18,8 L16,10 L16,17 C16,17.5522847 16.4477153,18 17,18 C17.5522847,18 18,17.5522847 18,17 C18,16.4477153 18.4477153,16 19,16 C19.5522847,16 20,16.4477153 20,17 C20,18.6568542 18.6568542,20 17,20 C16.2316456,20 15.5307565,19.7111464 15,19.2361065 L15,21 C15,21.5522847 14.5522847,22 14,22 C13.4477153,22 13,21.5522847 13,21 L13,19 L11,19 L11,21 C11,21.5522847 10.5522847,22 10,22 C9.44771525,22 9,21.5522847 9,21 L9,19.2361065 C8.46924351,19.7111464 7.76835444,20 7,20 C5.34314575,20 4,18.6568542 4,17 C4,16.4477153 4.44771525,16 5,16 C5.55228475,16 6,16.4477153 6,17 C6,17.5522847 6.44771525,18 7,18 C7.55228475,18 8,17.5522847 8,17 L8,10 Z" id="Shape"></path>
        </g>
    </g>
</svg>

<svg width="24" height="24" viewBox="0 0 24 24" xmlns="http://www.w3.org/2000/svg"><path d="M8 10L6 8l6-6 6 6-2 2v7a1 1 0 0 0 2 0 1 1 0 0 1 2 0 3 3 0 0 1-5 2.236V21a1 1 0 0 1-2 0v-2h-2v2a1 1 0 0 1-2 0v-1.764A3 3 0 0 1 4 17a1 1 0 0 1 2 0 1 1 0 0 0 2 0v-7z" fill="#000" fill-rule="evenodd"/></svg>
